X:1
T:James Gibb editions
T:Weep you no more sad fountains - Dowland
T:#
%%score [ 1 2 3 4 ]
L:1/8
Q:1/4=90
M:4/4
K:F
V:1 treble nm="Soprano" snm="S"
V:2 treble nm="Alto" snm="A"
V:3 treble-8 nm="Tenor" snm="T"
V:4 bass nm="Bass" snm="B"
V:1
"^Weep you no more, sad fountains""^John Dowland\n(1563-1626)" z4 d4- | d2 cc d2 B2 | A2 A2 z2 d2 | %3
w: Weep|* you no more, sad|foun- tains, What|
w: |||
w: Sleep|* is a re- con-|cil- ing, A|
[M:4/4] d4 c2 B2 | _e4 d4 | z4 c4- | c2 =BB c2 G2 | A2 F2 z4 | B2 d4 B2 | A3 A G4 |: A2 A2 B4- | %11
w: need you flow|so fast?|Look|* how the snow- y|moun- tains,|Heav'n's sun doth|gen- tly waste.|But my sun's|
w: ||||||||
w: rest that peace|be- gets.|Doth|* not the sun rise|smil- ing|When fair at|ev'n he sets?|Rest you then,|
 B2 (AG B2) c2 | d8 | z4 z2 =B2 | c2 d2 e4 | d8 | z8 | z4 g4- | g2 d2 d2 f2- | f2 c2 (_e4- | %20
w: * heav'n\- * * ly|eyes|View|not your weep-|ing||That|* now lies sleep\-|* ing, *|
w: ||||||||* * sleep\-|
w: * rest * * sad|eyes,|Melt|not in weep-|ing||While|* she lies sleep\-|* ing, *|
 e2 B2) B2 d2- | d2 A2 c4- | c2 G2 B4- | B2 F2 F2 A2- | A2 D2 (G4- | G4 ^F2 E2) | ^F4 F4 :| %27
w: * * ing, Soft\-|* ly, soft\-|* ly sleep\-|* ing, now soft\-|* ly lies||sleep- ing.|
w: |||||||
w: |||||||
V:2
 B6 A2- | AG G2 ^F2 G2- | G2 ^F2 G3 G |[M:4/4] B3 A GG B2- | B2 A2 B4 | A6 GG | %6
w: Weep, weep|* you no more, sad|* foun- tains, What|need, what need you flow|* so fast?|Look how the|
w: ||||||
w: Sleep, sleep|* is a re- con\-|* cil- ing, A|rest, a rest that peace|* be- gets.|Doth not the|
 AA F4 !courtesy!=E2 | F4 D2 (EF | GA) (B3 A G2- | G2) ^F2 G4 |: F2 F2 D4 | G4 G2 G2- | %12
w: snow- y moun- tains,|Heav'n's sun doth *|* * gen\- * *|* tly waste.|But my sun's,|my sun's heav'n\-|
w: ||||||
w: sun rise smil- ing|When fair at *|* * ev'n * *|* he sets?|Rest you, rest|you then, rest|
 G2 (^FE) F4 | z4 z2 D2 | G3 F (EC G2) | G4 z2 d2- | d2 A2 A2 c2- | c2 G2 G2 B2- | B2 F2 B4 | %19
w: * ly * eyes|View|not your weep\- * *|ing That|* now lies sleep\-|* ing, that now|* lies sleep-|
w: |||||||
w: * sad * eyes,|Melt|not in weep\- * *|ing While|* she lies sleep\-|* ing, that now|* lies sleep-|
 G4 z2 G2- | G2 D4 F2- | F2 C2 (C3 D | E4) D4 | z2 D3 C F2- | F2 F2 D4 | D8 | D8 :| %27
w: ing, *|* ly, soft\-|* ly, soft\- *|* ly,|that now soft\-|* ly lies|sleep-|ing.|
w: * Soft\-||||||||
w: ing, *||||||||
V:3
 d4 G2 A2 | B2 G2 A2 G2 | d4 d4 |[M:4/4][K:treble-8] z2 d2 _e2 f2 | _e2 c2 f4 | c8 | c2 d2 GG c2- | %7
w: Weep you no|more, no more, sad|foun- tains,|What need you|flow so fast?|Look|how the snow- y moun\-|
w: |||||||
w: Sleep is, sleep|is a re- con-|cil- ing,|A rest that|peace be- gets.|Doth|not the sun rise smil\-|
 c2 d2 (B2 c2 | dc BA) G2 d2 | d3 d d4 |: z2 A4 (GF) | (Bc) (d4 c2) | B4 A4 | z2 d2 g3 f | %14
w: * tains, Heav'n's *|* * * * sun doth|gen- tly waste.|But my *|sun's * heav'n\- *|ly eyes|View not, view|
w: |||||||
w: * ing When *|* * * * fair at|ev'n he sets?|Rest you *|then, * rest *|sad eyes,|Melt not, melt|
 _e2 d2 c4 | =B4 z2 f2- | f2 c2 c2 _e2- | e2 B2 (B3 c | d4) d4 | z2 c4 G2 | G2 B4 F2 | A8 | %22
w: not your weep-|ing That|* now lies sleep\-|* ing, sleep\- *|* ing,||lies sleep- ing,|Soft-|
w: |||||that now|||
w: not in weep-|ing While|* she lies sleep\-|* ing, sleep\- *|* ing,||||
 G2 g4 d2- | d2 f4 c2 | d4 B4 | A8 | A8 :| %27
w: ly, soft- ly,|* now soft-|ly lies|sleep-|ing.|
w: |||||
w: |||||
V:4
 G,6 ^F,F, | G,2 _E,2 D,2 D,2 | z2 D,2 B,,2 G,,2 |[M:4/4] G,2 F,2 _E,2 D,2 | C,3 C, B,,4 | %5
w: Weep you no|more, sad foun- tains,|What need you|flow, what need you|flow so fast?|
w: |||||
w: Sleep is a|re- con- cil- ing,|A rest that|peace, a rest that|peace be- gets.|
 F,6 =E,E, | F,2 D,2 C,4 | F,,2 B,,4 A,,2 | (G,,3 A,,) (B,,3 C, | D,2) D,2 G,,4 |: D,2 D,2 D,4 | %11
w: Look how the|snow- y moun-|tarns, Heav'n's sun|doth * gen\- *|* tly waste.|But my sun's|
w: ||||||
w: Doth not the|sun rise smil-|ing When fair|at * ev'n *|* he sets?|Rest you then,|
 _E,6 E,2 | D,4 z2 D,2 | G,3 F, _E,2 D,2 | C,2 =B,,B,, C,4 | G,,2 G,4 D,2 | D,2 F,4 C,2 | _E,8 | %18
w: heav'n- ly|eyes View|not, view not your|weep- ing, your weep-|ing, That now|lies sleep- ing,||
w: ||||||Soft-|
w: rest sad|eyes, Melt|not, melt not in|weep- ing, in weep-|ing While she|lies sleep- ing,||
 B,,8 | C,8 | G,,4 B,,4 | F,,8 | G,,4 G,4 | D,4 F,4 | (B,,6 C,2) | D,8 | D,8 :| %27
w: ||ly, now|soft-|ly, now|soft- ly|lies *|sleep-|ing.|
w: ly,|soft-||||||||
w: |||||||||

